X:55
T:Polska efter Pelle Fors
R:sl-polska
A:\"Osterg\"otland
Z:id:hn-sp-55
M:3/4
L:1/16
K:Ddor
HD(^FA)(F D)(GB)(G D)(FA)F | A2a2-a^gbg g2a2 | HD(^FA)(F D)(GB)(G D)(FA)F |
A2a2-a^gbg a2ae | =fefg afaf Pfeed | d^cAc e2d2 d4:|
d2=fa a2fa a2fd | A2^ce e2ce Pfedc | d2=fa a2fa a2fd |
A2^ce e2ce Pfedc | d2e=f g2_ba gfed | ^cdec d8 |
"andra delen \"aven s{\aa} h\"ar"
d2=fa a2fa a2fd | A2^ce gage Pfedc | d2=fa a2fa a2fd |
A2^ce gage Pfedc | d2e=f g2_ba gfed | ^cdec d8 ||

